X:324
T:Wind in the Rigging, The
M:C|
L:1/8
C:© Paul Gitlitz, December 2011
K:D
A2|:"D"d3e fdAF|"G"GFGA "Em"BGEc|"D"dcde fdAF| "G"GAFA "A"EAcA|!
"D"d3e fdAF|"G"GFGA "Em"BGEA|"D"FADA "D"FAdA|1"A"BAce "D"d2A2:|2"A"BAce "D"d2dc|!
|:"G"BG(3GGG BcdB|"F#m"cA(3AAA "A"cdec|"G"BG(3GGG BcdB|"A"cdeg "D"fedc|!
"G"BG(3GGG BcdB|"F#m"cA(3AAA "A"cdec|"G"BG(3GGG BcdB|"A"ceAc "D"d4:|
